X:171
T: Igyunk egyet...
M: 4/4
L: 1/4
K: C
gfec | gfec | 
dgdg | dcBG | 
BBBB | dccB | 
dcBA | GGAG | 

